X:10
T:Barlow Knife
M:2/4
L:1/4
B:Appalachian Fiddle, p.25
N:Chords from Complete Tractor
Z:abc-transcription Josh Larios <hades@elsewhere.org>, 2014.01.13
K:G
|: "G"gg | "D"f/g/ a/f/ | "G"gg | B/c/d | "G"gg | "D"f/g/ a/f/ | "C"e/g/ f/e/ | "G"d2 :|
|: "G"ed | B/A/ G | ed | B2 | e d | B/A/ G/B/ | "D"AG | "G" G2 :|
|: "D"Ad | "G"B/A/ G | "D"Ad | "G"B2 | "D"Ad | "G"B/A/ G/B/ | "D"AG | "G" G2 :|

